svg/ac.svg

<svg width="24" height="24" viewBox="0 0 24 24" xmlns="http://www.w3.org/2000/svg">
<path d="M16.67 17C15.9479 16.9873 15.2389 16.8041 14.6011 16.4652C13.9633 16.1263 13.4147 15.6414 13 15.05L9.36001 10.16C9.1279 9.80623 8.81203 9.51526 8.44046 9.3129C8.06889 9.11054 7.6531 9.00305 7.23001 8.99997C6.77343 9.05419 6.33732 9.22041 5.96048 9.48385C5.58364 9.74729 5.27775 10.0998 5.07001 10.51L3.86001 12.51L2.14001 11.51L3.35001 9.50997C3.71832 8.80965 4.25642 8.21292 4.91506 7.77441C5.5737 7.3359 6.33182 7.06962 7.12001 6.99997C7.88316 6.97767 8.63948 7.14948 9.3181 7.49928C9.99672 7.84909 10.5754 8.36544 11 8.99997L14.68 13.89C14.9134 14.2295 15.2252 14.5077 15.5891 14.701C15.9529 14.8942 16.358 14.9968 16.77 15C17.2269 14.9466 17.6633 14.7807 18.0403 14.5172C18.4173 14.2537 18.723 13.9007 18.93 13.49L20.14 11.49L21.86 12.49L20.65 14.49C20.2817 15.1903 19.7436 15.787 19.085 16.2255C18.4263 16.664 17.6682 16.9303 16.88 17H16.67Z"/>
</svg>

<svg width="24" height="24" viewBox="0 0 24 24" xmlns="http://www.w3.org/2000/svg"><path d="M16.67 17A4.581 4.581 0 0 1 13 15.05l-3.64-4.89A2.57 2.57 0 0 0 7.23 9a2.79 2.79 0 0 0-2.16 1.51l-1.21 2-1.72-1 1.21-2A4.73 4.73 0 0 1 7.12 7 4.51 4.51 0 0 1 11 9l3.68 4.89A2.561 2.561 0 0 0 16.77 15a2.78 2.78 0 0 0 2.16-1.51l1.21-2 1.72 1-1.21 2A4.73 4.73 0 0 1 16.88 17h-.21z"/></svg>
